X:407
T:Lady Charlotte Murray
R:Reel
C:Daniel Dow
B:The Athole Collection
M:C|
L:1/8
K:D
A|d2fd ABAF|Gegf edef|d2fd ABAF|GEAF D/D/D D:|
f/g/|adfd fadf|gfed cdeg|adfd fadf|geaf d/d/d df/g/|
adfd fadf|gfed cdeg|fdAd FdAF|Egfe d/d/d d||

